X:1
T:Title
%%score { ( 1 3 ) | 2 }
L:1/8
M:3/4
K:Db
V:1 treble nm="Grand Piano"
V:3 treble 
V:2 bass 
V:1
 z2 z[Q:1/4=80] [FA] [FB][Fd] | [Gc]3 [A,G] [CAc][GB] | [FA]4 [Fd]2 | [Gc]3 [EGe] [B,GB][CGc] | %4
 [Fd]3 [FA] [FB][Fd] | [Gc]3 [A,G] [CAc][GB] | [FA]4 [Fd]2 | [=Gd]3 [GB] [Gc][Gd] |[M:3/8] e3 | %9
 FFF |[M:3/4] A3 F A=G | G4 G2 | [Ac]3 [GB] [FA][EG] | F3 F FF | B3 d dc | [DB]4 [=DB]2 | %16
 [Ee]3 [=GB] [Gc][Gd] | c3 F FF | A3 F A=G | G4 G2 | [Ac]3 [GB] [FA][EG] | F3 D DD | d3 d cB | %23
 A3 D DD[Q:1/4=78][Q:1/4=75][Q:1/4=73][Q:1/4=70][Q:1/4=68][Q:1/4=65][Q:1/4=63] | z2 z2 [CA]2 | %25
[M:3/8] A3 |] %26
V:2
 z2 z [D,A,] [D,A,B,][D,A,D] | [E,A,C]3 [C,G,] [A,,A,][C,A,B,] | [D,A,]4 [D,A,D]2 | %3
 [E,A,C]3 [C,A,] [A,,A,][A,,A,] | [D,A,D]3 [D,A,] [D,A,B,][D,A,D] | %5
 [E,A,C]3 [C,G,] [A,,A,][C,A,B,] | [D,A,]4 [D,B,D]2 | [E,B,D]3 [E,B,E] [E,CE][E,D] | %8
[M:3/8] [A,CG]3 | [D,A,D][D,A,D][D,A,D] |[M:3/4] [F,A,D]3 [D,A,D] [F,A,D][_F,B,D] | %11
 [E,A,C]4 [E,A,C]2 | [A,,A,]3 [A,,A,] [B,,A,][C,A,] | [D,A,D]3 [D,A,D] [F,=A,E][F,A,E] | %14
 [B,D]3 [F,B,F] [F,B,F][F,=A,E] | [B,,B,]4 [A,B,]2 | [=G,B,]3 [E,B,] [E,C][E,D] | %17
 [A,EG]3 [A,D][K:bass] [F,A,D][D,A,D] | [F,A,D]3 [D,A,D] [F,A,D][_F,B,D] | [E,A,C]4 [E,A,C]2 | %20
 [A,,A,]3 [A,,A,] [B,,A,][C,A,] | [D,A,D]3 [D,F,] [E,G,][F,A,] | %22
 [G,B,D]3[K:treble] [=G,B,_F] [G,CF][G,DF] | [A,DF]3[K:bass] [G,B,] [F,A,][E,G,] | %24
 [D,F,D]4 .[A,,E,]2 |[M:3/8] [D,F,D]3 |] %26
V:3
 x6 | x6 | x6 | x6 | x6 | x6 | x6 | x6 |[M:3/8] x3 | x3 |[M:3/4] x6 | x6 | x6 | x6 | x6 | x6 | x6 | %17
 x6 | x6 | x6 | x6 | x6 | x6 | x6 | A4 z G, |[M:3/8] x3 |] %26

